actions/32/folder-new.svg

<?xml version="1.0" encoding="UTF-8" standalone="no"?>
<svg
   xmlns:dc="http://purl.org/dc/elements/1.1/"
   xmlns:cc="http://creativecommons.org/ns#"
   xmlns:rdf="http://www.w3.org/1999/02/22-rdf-syntax-ns#"
   xmlns:svg="http://www.w3.org/2000/svg"
   xmlns="http://www.w3.org/2000/svg"
   xmlns:xlink="http://www.w3.org/1999/xlink"
   id="svg14288"
   height="32"
   width="32"
   version="1.1">
  <defs
     id="defs14290">
    <linearGradient
       gradientTransform="matrix(0.89186139,0,0,1.0539115,3.1208294,5.412539)"
       gradientUnits="userSpaceOnUse"
       xlink:href="#linearGradient3454-2-5-0-3-4"
       id="linearGradient5926"
       y2="21.386522"
       x2="27.557428"
       y1="7.162672"
       x1="27.557428" />
    <linearGradient
       id="linearGradient3454-2-5-0-3-4">
      <stop
         offset="0"
         style="stop-color:#ffffff;stop-opacity:1"
         id="stop3456-4-9-38-1-8" />
      <stop
         offset="0.0097359"
         style="stop-color:#ffffff;stop-opacity:0.23529412"
         id="stop3458-39-80-3-5-5" />
      <stop
         offset="0.99001008"
         style="stop-color:#ffffff;stop-opacity:0.15686275"
         id="stop3460-7-0-2-4-2" />
      <stop
         offset="1"
         style="stop-color:#ffffff;stop-opacity:0.39215687"
         id="stop3462-0-9-8-7-2" />
    </linearGradient>
    <linearGradient
       gradientTransform="matrix(0.7467531,0,0,0.6554922,-1.9218906,1.167619)"
       gradientUnits="userSpaceOnUse"
       xlink:href="#linearGradient6129-963-697-142-998-580-273-5"
       id="linearGradient5922"
       y2="36.657963"
       x2="22.809399"
       y1="49.629246"
       x1="22.934725" />
    <linearGradient
       id="linearGradient6129-963-697-142-998-580-273-5">
      <stop
         offset="0"
         style="stop-color:#0a0a0a;stop-opacity:0.498"
         id="stop2661-1" />
      <stop
         offset="1"
         style="stop-color:#0a0a0a;stop-opacity:0"
         id="stop2663-85" />
    </linearGradient>
    <linearGradient
       gradientTransform="matrix(0.64444432,0,0,0.64285702,0.53351936,0.89285905)"
       gradientUnits="userSpaceOnUse"
       xlink:href="#linearGradient4632-0-6-4-3-4"
       id="linearGradient5915"
       y2="43.761127"
       x2="35.792694"
       y1="17.118193"
       x1="35.792694" />
    <linearGradient
       id="linearGradient4632-0-6-4-3-4">
      <stop
         offset="0"
         style="stop-color:#b4cee1;stop-opacity:1"
         id="stop4634-4-4-7-7-4" />
      <stop
         offset="1"
         style="stop-color:#5d9fcd;stop-opacity:1"
         id="stop4636-3-1-5-1-3" />
    </linearGradient>
    <linearGradient
       gradientTransform="matrix(0.05114282,0,0,0.01591575,-2.4899573,22.29927)"
       gradientUnits="userSpaceOnUse"
       xlink:href="#linearGradient5048-585-0"
       id="linearGradient5905"
       y2="609.50507"
       x2="302.85715"
       y1="366.64789"
       x1="302.85715" />
    <linearGradient
       id="linearGradient5048-585-0">
      <stop
         offset="0"
         style="stop-color:#000000;stop-opacity:0"
         id="stop2667-18" />
      <stop
         offset="0.5"
         style="stop-color:#000000;stop-opacity:1"
         id="stop2669-9" />
      <stop
         offset="1"
         style="stop-color:#000000;stop-opacity:0"
         id="stop2671-33" />
    </linearGradient>
    <radialGradient
       gradientTransform="matrix(0.01983573,0,0,0.01591575,16.38765,22.29927)"
       gradientUnits="userSpaceOnUse"
       xlink:href="#linearGradient5060-179-67"
       id="radialGradient5907"
       fy="486.64789"
       fx="605.71429"
       r="117.14286"
       cy="486.64789"
       cx="605.71429" />
    <linearGradient
       id="linearGradient5060-179-67">
      <stop
         offset="0"
         style="stop-color:#000000;stop-opacity:1"
         id="stop2675-81" />
      <stop
         offset="1"
         style="stop-color:#000000;stop-opacity:0"
         id="stop2677-2" />
    </linearGradient>
    <radialGradient
       gradientTransform="matrix(-0.01983573,0,0,0.01591575,15.60139,22.29927)"
       gradientUnits="userSpaceOnUse"
       xlink:href="#linearGradient5060-820-4"
       id="radialGradient5909"
       fy="486.64789"
       fx="605.71429"
       r="117.14286"
       cy="486.64789"
       cx="605.71429" />
    <linearGradient
       id="linearGradient5060-820-4">
      <stop
         offset="0"
         style="stop-color:#000000;stop-opacity:1"
         id="stop2681-5" />
      <stop
         offset="1"
         style="stop-color:#000000;stop-opacity:0"
         id="stop2683-00" />
    </linearGradient>
    <linearGradient
       gradientTransform="matrix(0.54383556,0,0,0.61466406,3.2688794,5.091139)"
       gradientUnits="userSpaceOnUse"
       xlink:href="#linearGradient4325"
       id="linearGradient5903"
       y2="34.143417"
       x2="21.37039"
       y1="4.73244"
       x1="21.37039" />
    <linearGradient
       id="linearGradient4325">
      <stop
         offset="0"
         style="stop-color:#ffffff;stop-opacity:1"
         id="stop4327" />
      <stop
         offset="0.1106325"
         style="stop-color:#ffffff;stop-opacity:0.23529412"
         id="stop4329" />
      <stop
         offset="0.99001008"
         style="stop-color:#ffffff;stop-opacity:0.15686275"
         id="stop4331" />
      <stop
         offset="1"
         style="stop-color:#ffffff;stop-opacity:0.39215687"
         id="stop4333" />
    </linearGradient>
    <linearGradient
       gradientTransform="matrix(0.61904762,0,0,0.61904762,-30.391811,1.428569)"
       gradientUnits="userSpaceOnUse"
       xlink:href="#linearGradient4646-7-4-3-5"
       id="linearGradient5899"
       y2="16"
       x2="62.988873"
       y1="13"
       x1="62.988873" />
    <linearGradient
       id="linearGradient4646-7-4-3-5">
      <stop
         offset="0"
         style="stop-color:#f9f9f9;stop-opacity:1"
         id="stop4648-8-0-3-6" />
      <stop
         offset="1"
         style="stop-color:#d8d8d8;stop-opacity:1"
         id="stop4650-1-7-3-4" />
    </linearGradient>
    <linearGradient
       id="linearGradient3104-8-8-97-4-6-11-5-5-0">
      <stop
         offset="0"
         style="stop-color:#000000;stop-opacity:0.32173914"
         id="stop3106-5-4-3-5-0-2-1-0-6" />
      <stop
         offset="1"
         style="stop-color:#000000;stop-opacity:0.27826086"
         id="stop3108-4-3-7-8-2-0-7-9-1" />
    </linearGradient>
    <linearGradient
       gradientTransform="matrix(0.50703384,0,0,0.50300255,68.029219,1.329769)"
       gradientUnits="userSpaceOnUse"
       xlink:href="#linearGradient3104-8-8-97-4-6-11-5-5-0"
       id="linearGradient14236"
       y2="3.6336823"
       x2="-51.786404"
       y1="53.514328"
       x1="-51.786404" />
    <radialGradient
       gradientTransform="matrix(0,0.68597915,-0.7462606,0,60.288383,-27.737493)"
       gradientUnits="userSpaceOnUse"
       xlink:href="#linearGradient3242-7-3-8-0-4-58-06"
       id="radialGradient3343"
       fy="48.709068"
       fx="65.325226"
       r="31.000002"
       cy="48.709068"
       cx="65.325226" />
    <linearGradient
       id="linearGradient3242-7-3-8-0-4-58-06">
      <stop
         id="stop3244-5-8-5-6-4-3-8"
         style="stop-color:#cdf87e;stop-opacity:1"
         offset="0" />
      <stop
         id="stop3246-9-5-1-5-3-0-7"
         style="stop-color:#a2e34f;stop-opacity:1"
         offset="0.26238" />
      <stop
         id="stop3248-7-2-0-7-5-35-9"
         style="stop-color:#68b723;stop-opacity:1"
         offset="0.66093999" />
      <stop
         id="stop3250-8-2-8-5-6-40-4"
         style="stop-color:#1d7e0d;stop-opacity:1"
         offset="1" />
    </linearGradient>
    <linearGradient
       gradientTransform="matrix(0.42269325,0,0,0.38513145,14.544843,15.082967)"
       gradientUnits="userSpaceOnUse"
       xlink:href="#linearGradient4154"
       id="linearGradient3030-2"
       y2="36.135799"
       x2="24.138529"
       y1="10.170639"
       x1="24.138529" />
    <linearGradient
       id="linearGradient4154">
      <stop
         offset="0"
         style="stop-color:#ffffff;stop-opacity:1"
         id="stop4156" />
      <stop
         offset="0"
         style="stop-color:#ffffff;stop-opacity:0.23529412"
         id="stop4158" />
      <stop
         offset="1"
         style="stop-color:#ffffff;stop-opacity:0.15686275"
         id="stop4160" />
      <stop
         offset="1"
         style="stop-color:#ffffff;stop-opacity:0.39215687"
         id="stop4162" />
    </linearGradient>
    <linearGradient
       gradientTransform="matrix(0.38833389,0,0,0.41842122,15.301011,14.318351)"
       gradientUnits="userSpaceOnUse"
       xlink:href="#linearGradient4333"
       id="linearGradient3030-1"
       y2="25.52846"
       x2="24.138529"
       y1="20.748587"
       x1="24.138529" />
    <linearGradient
       id="linearGradient4333">
      <stop
         id="stop4335"
         style="stop-color:#ffffff;stop-opacity:1"
         offset="0" />
      <stop
         id="stop4337"
         style="stop-color:#ffffff;stop-opacity:0.23529412"
         offset="0.00000003" />
      <stop
         id="stop4339"
         style="stop-color:#ffffff;stop-opacity:0.15686275"
         offset="1" />
      <stop
         id="stop4341"
         style="stop-color:#ffffff;stop-opacity:0.39215687"
         offset="1" />
    </linearGradient>
  </defs>
  <metadata
     id="metadata14293">
    <rdf:RDF>
      <cc:Work
         rdf:about="">
        <dc:format>image/svg+xml</dc:format>
        <dc:type
           rdf:resource="http://purl.org/dc/dcmitype/StillImage" />
        <dc:title></dc:title>
      </cc:Work>
    </rdf:RDF>
  </metadata>
  <path
     d="m 4.0001794,6.500079 c -0.43342,0.005 -0.5,0.21723 -0.5,0.6349 l 0,1.36502 c -1.24568,0 -1,-0.002 -1,0.54389 0.0216,6.53313 0,6.90143 0,7.45611 0.90135,0 26.9999996,-2.34895 26.9999996,-3.36005 l 0,-4.09606 c 0,-0.41767 -0.34799,-0.54876 -0.78141,-0.54389 l -14.21859,0 0,-1.36502 c 0,-0.41767 -0.26424,-0.63977 -0.69767,-0.6349 l -9.8023296,0 z"
     id="path3468-10"
     style="color:#000000;display:inline;overflow:visible;visibility:visible;opacity:0.8;fill:none;stroke:url(#linearGradient14236);stroke-width:1;stroke-linecap:butt;stroke-linejoin:miter;stroke-miterlimit:4;stroke-dasharray:none;stroke-dashoffset:0;stroke-opacity:1;marker:none;enable-background:accumulate" />
  <path
     d="m 4.0001794,6.999999 0,2 -1,0 0,4 25.9999996,0 0,-4 -15,0 0,-2 -9.9999996,0 z"
     id="rect3409-5"
     style="color:#000000;display:inline;overflow:visible;visibility:visible;fill:url(#linearGradient5899);fill-opacity:1;fill-rule:nonzero;stroke:none;stroke-width:1;marker:none;enable-background:accumulate" />
  <path
     d="m 4.5001794,7.499999 0,2 -1,0 0,4 24.9999996,0 0,-4 -15,0 0,-2 -8.9999996,0 z"
     id="rect3409"
     style="color:#000000;display:inline;overflow:visible;visibility:visible;fill:none;stroke:url(#linearGradient5903);stroke-width:1;stroke-linecap:round;stroke-linejoin:miter;stroke-miterlimit:4;stroke-dasharray:none;stroke-dashoffset:0;stroke-opacity:1;marker:none;enable-background:accumulate" />
  <g
     transform="translate(1.7935663e-4,-1.000001)"
     id="g2458">
    <rect
       width="24.694677"
       height="3.8652544"
       x="3.6471815"
       y="28.134747"
       id="rect4173-1"
       style="display:inline;overflow:visible;visibility:visible;opacity:0.3;fill:url(#linearGradient5905);fill-opacity:1;fill-rule:nonzero;stroke:none;stroke-width:1;marker:none" />
    <path
       d="m 28.341859,28.13488 c 0,0 0,3.865041 0,3.865041 1.021491,0.0073 2.469468,-0.86596 2.469468,-1.932769 0,-1.06681 -1.139908,-1.932272 -2.469468,-1.932272 z"
       id="path5058-4"
       style="display:inline;overflow:visible;visibility:visible;opacity:0.3;fill:url(#radialGradient5907);fill-opacity:1;fill-rule:nonzero;stroke:none;stroke-width:1;marker:none" />
    <path
       d="m 3.6471816,28.13488 c 0,0 0,3.865041 0,3.865041 -1.0214912,0.0073 -2.4694678,-0.86596 -2.4694678,-1.932769 0,-1.06681 1.1399068,-1.932272 2.4694678,-1.932272 z"
       id="path5018-84"
       style="display:inline;overflow:visible;visibility:visible;opacity:0.3;fill:url(#radialGradient5909);fill-opacity:1;fill-rule:nonzero;stroke:none;stroke-width:1;marker:none" />
  </g>
  <path
     d="m 1.9270194,11.499999 c -0.69105,0.0796 -0.32196,0.90258 -0.37705,1.36535 0.0802,0.29906 0.59771,15.71799 0.59771,16.24744 0,0.46018 0.22667,0.38222 0.80101,0.38222 8.4993996,0 17.8980796,0 26.3974796,0 0.61872,0.0143 0.48796,0.007 0.48796,-0.38947 0.0452,-0.20269 0.63993,-16.97848 0.66282,-17.24344 0,-0.279 0.0581,-0.3621 -0.30493,-0.3621 -9.0765,0 -19.18849,0 -28.2649996,0 z"
     id="path3388"
     style="color:#000000;display:inline;overflow:visible;visibility:visible;fill:url(#linearGradient5915);fill-opacity:1;fill-rule:nonzero;stroke:none;stroke-width:0.99999994;marker:none;enable-background:accumulate" />
  <path
     d="m 1.6819994,10.999999 28.6363696,2.7e-4 c 0.4137,0 0.68181,0.29209 0.68181,0.65523 l -0.6735,17.71211 c 0.01,0.45948 -0.1364,0.64166 -0.61707,0.63203 l -27.2561296,-0.0115 c -0.4137,0 -0.83086,-0.27118 -0.83086,-0.63432 l -0.62244,-17.69829 c 0,-0.36314 0.26812,-0.65549 0.68182,-0.65549 z"
     id="path6127-36"
     style="opacity:0.4;fill:url(#linearGradient5922);fill-opacity:1;stroke:none" />
  <path
     d="m 2.5001794,12.499999 0.62498,16 25.7491696,0 0.62498,-16 z"
     id="path3309"
     style="color:#000000;display:inline;overflow:visible;visibility:visible;opacity:0.5;fill:none;stroke:url(#linearGradient5926);stroke-width:1.00000012;stroke-linecap:round;stroke-linejoin:miter;stroke-miterlimit:4;stroke-dasharray:none;stroke-dashoffset:0;stroke-opacity:1;marker:none;enable-background:accumulate" />
  <path
     d="m 1.9270194,11.499999 c -0.69105,0.0796 -0.32196,0.90258 -0.37705,1.36535 0.0802,0.29906 0.59771,15.71799 0.59771,16.24744 0,0.46018 0.22667,0.38222 0.80101,0.38222 8.4993996,0 17.8980796,0 26.3974796,0 0.61872,0.0143 0.48796,0.007 0.48796,-0.38947 0.0452,-0.20269 0.63993,-16.97848 0.66282,-17.24344 0,-0.279 0.0581,-0.3621 -0.30493,-0.3621 -9.0765,0 -19.18849,0 -28.2649996,0 z"
     id="path3388-5"
     style="color:#000000;display:inline;overflow:visible;visibility:visible;opacity:0.3;fill:none;stroke:#000000;stroke-width:0.99999994;stroke-linecap:round;stroke-linejoin:round;stroke-miterlimit:4;stroke-dasharray:none;stroke-dashoffset:0;stroke-opacity:1;marker:none;enable-background:accumulate" />
  <g
     id="g4374">
    <path
       style="color:#000000;display:inline;overflow:visible;visibility:visible;fill:url(#radialGradient3343);fill-opacity:1;fill-rule:nonzero;stroke:none;stroke-width:0.98542744;stroke-linecap:round;stroke-linejoin:round;stroke-miterlimit:4;stroke-dasharray:none;stroke-dashoffset:0;stroke-opacity:1;marker:none;enable-background:accumulate"
       id="path2262"
       d="m 21.5,21.5 0,-4.021022 5,0 0,4.021022 4.007287,0 0,5 -4.007287,0 0,4.007286 -5,0 0,-4.007286 -4.007286,0 0,-5 4.007286,0 z" />
    <path
       d="m 22.5,23.003028 0,-4.503028 3,0 0,4.496972 M 25.5,25 l 0,4.5 -3,0 0,-4.5"
       id="path2272-4"
       style="display:inline;opacity:0.5;fill:none;stroke:url(#linearGradient3030-2);stroke-width:1;stroke-linecap:butt;stroke-linejoin:miter;stroke-miterlimit:4;stroke-dasharray:none;stroke-opacity:1" />
    <path
       d="m 26,22.512298 3.499869,-0.01086 0,2.987703 L 26,25.500001 m -4,0 -3.500131,-0.01086 0,-2.987703 L 22,22.512298"
       id="path2272-2"
       style="display:inline;opacity:0.5;fill:none;stroke:url(#linearGradient3030-1);stroke-width:0.99999994;stroke-linecap:butt;stroke-linejoin:miter;stroke-miterlimit:4;stroke-dasharray:none;stroke-opacity:1" />
    <path
       style="color:#000000;clip-rule:nonzero;display:inline;overflow:visible;visibility:visible;opacity:0.5;isolation:auto;mix-blend-mode:normal;color-interpolation:sRGB;color-interpolation-filters:linearRGB;solid-color:#000000;solid-opacity:1;fill:none;fill-opacity:1;fill-rule:nonzero;stroke:#0f5a00;stroke-width:1;stroke-linecap:round;stroke-linejoin:round;stroke-miterlimit:4;stroke-dasharray:none;stroke-dashoffset:0;stroke-opacity:1;marker:none;color-rendering:auto;image-rendering:auto;shape-rendering:auto;text-rendering:auto;enable-background:accumulate"
       id="path2262-9"
       d="m 21.5,21.5 0,-4.021022 5,0 0,4.021022 4.007287,0 0,5 -4.007287,0 0,4.007286 -5,0 0,-4.007286 -4.007286,0 0,-5 4.007286,0 z" />
  </g>
</svg>

<svg xmlns="http://www.w3.org/2000/svg" xmlns:xlink="http://www.w3.org/1999/xlink" viewBox="0 0 32 32"><defs><linearGradient gradientTransform="matrix(.89186 0 0 1.0539 3.12 5.413)" gradientUnits="userSpaceOnUse" xlink:href="#a" id="u" y2="21.387" x2="27.557" y1="7.163" x1="27.557"/><linearGradient id="a"><stop offset="0" stop-color="#fff"/><stop offset=".01" stop-color="#fff" stop-opacity=".235"/><stop offset=".99" stop-color="#fff" stop-opacity=".157"/><stop offset="1" stop-color="#fff" stop-opacity=".392"/></linearGradient><linearGradient gradientTransform="matrix(.74675 0 0 .6555 -1.922 1.168)" gradientUnits="userSpaceOnUse" xlink:href="#b" id="t" y2="36.658" x2="22.809" y1="49.629" x1="22.935"/><linearGradient id="b"><stop offset="0" stop-color="#0a0a0a" stop-opacity=".498"/><stop offset="1" stop-color="#0a0a0a" stop-opacity="0"/></linearGradient><linearGradient gradientTransform="matrix(.64444 0 0 .64286 .534 .893)" gradientUnits="userSpaceOnUse" xlink:href="#c" id="s" y2="43.761" x2="35.793" y1="17.118" x1="35.793"/><linearGradient id="c"><stop offset="0" stop-color="#b4cee1"/><stop offset="1" stop-color="#5d9fcd"/></linearGradient><linearGradient gradientTransform="matrix(.05114 0 0 .01592 -2.49 22.3)" gradientUnits="userSpaceOnUse" xlink:href="#d" id="p" y2="609.505" x2="302.857" y1="366.648" x1="302.857"/><linearGradient id="d"><stop offset="0" stop-opacity="0"/><stop offset=".5"/><stop offset="1" stop-opacity="0"/></linearGradient><radialGradient gradientTransform="matrix(.01984 0 0 .01592 16.388 22.3)" gradientUnits="userSpaceOnUse" xlink:href="#e" id="q" fy="486.648" fx="605.714" r="117.143" cy="486.648" cx="605.714"/><linearGradient id="e"><stop offset="0"/><stop offset="1" stop-opacity="0"/></linearGradient><radialGradient gradientTransform="matrix(-.01984 0 0 .01592 15.6 22.3)" gradientUnits="userSpaceOnUse" xlink:href="#f" id="r" fy="486.648" fx="605.714" r="117.143" cy="486.648" cx="605.714"/><linearGradient id="f"><stop offset="0"/><stop offset="1" stop-opacity="0"/></linearGradient><linearGradient gradientTransform="matrix(.54384 0 0 .61466 3.27 5.09)" gradientUnits="userSpaceOnUse" xlink:href="#g" id="o" y2="34.143" x2="21.37" y1="4.732" x1="21.37"/><linearGradient id="g"><stop offset="0" stop-color="#fff"/><stop offset=".111" stop-color="#fff" stop-opacity=".235"/><stop offset=".99" stop-color="#fff" stop-opacity=".157"/><stop offset="1" stop-color="#fff" stop-opacity=".392"/></linearGradient><linearGradient gradientTransform="translate(-30.392 1.43) scale(.61905)" gradientUnits="userSpaceOnUse" xlink:href="#h" id="n" y2="16" x2="62.989" y1="13" x1="62.989"/><linearGradient id="h"><stop offset="0" stop-color="#f9f9f9"/><stop offset="1" stop-color="#d8d8d8"/></linearGradient><linearGradient id="i"><stop offset="0" stop-opacity=".322"/><stop offset="1" stop-opacity=".278"/></linearGradient><linearGradient gradientTransform="matrix(.50703 0 0 .503 68.03 1.33)" gradientUnits="userSpaceOnUse" xlink:href="#i" id="m" y2="3.634" x2="-51.786" y1="53.514" x1="-51.786"/><radialGradient gradientTransform="matrix(0 .68598 -.74626 0 60.288 -27.737)" gradientUnits="userSpaceOnUse" xlink:href="#j" id="v" fy="48.709" fx="65.325" r="31" cy="48.709" cx="65.325"/><linearGradient id="j"><stop offset="0" stop-color="#cdf87e"/><stop offset=".262" stop-color="#a2e34f"/><stop offset=".661" stop-color="#68b723"/><stop offset="1" stop-color="#1d7e0d"/></linearGradient><linearGradient gradientTransform="matrix(.4227 0 0 .38513 14.545 15.083)" gradientUnits="userSpaceOnUse" xlink:href="#k" id="w" y2="36.136" x2="24.139" y1="10.171" x1="24.139"/><linearGradient id="k"><stop offset="0" stop-color="#fff"/><stop offset="0" stop-color="#fff" stop-opacity=".235"/><stop offset="1" stop-color="#fff" stop-opacity=".157"/><stop offset="1" stop-color="#fff" stop-opacity=".392"/></linearGradient><linearGradient gradientTransform="matrix(.38833 0 0 .41842 15.3 14.318)" gradientUnits="userSpaceOnUse" xlink:href="#l" id="x" y2="25.528" x2="24.139" y1="20.749" x1="24.139"/><linearGradient id="l"><stop offset="0" stop-color="#fff"/><stop offset="0" stop-color="#fff" stop-opacity=".235"/><stop offset="1" stop-color="#fff" stop-opacity=".157"/><stop offset="1" stop-color="#fff" stop-opacity=".392"/></linearGradient></defs><path d="M4 6.5c-.433.005-.5.217-.5.635V8.5c-1.246 0-1-.002-1 .544.022 6.533 0 6.9 0 7.456.902 0 27-2.35 27-3.36V9.044c0-.418-.348-.55-.78-.544H14.5V7.135c0-.418-.264-.64-.697-.635H4z" color="#000" overflow="visible" opacity=".8" fill="none" stroke="url(#m)"/><path d="M4 7v2H3v4h26V9H14V7H4z" color="#000" overflow="visible" fill="url(#n)"/><path d="M4.5 7.5v2h-1v4h25v-4h-15v-2h-9z" color="#000" overflow="visible" fill="none" stroke="url(#o)" stroke-linecap="round"/><path overflow="visible" opacity=".3" fill="url(#p)" d="M3.647 28.135h24.695V32H3.647z" transform="translate(0 -1)"/><path d="M28.342 28.135V32c1.02.007 2.47-.866 2.47-1.933 0-1.067-1.14-1.932-2.47-1.932z" overflow="visible" opacity=".3" fill="url(#q)" transform="translate(0 -1)"/><path d="M3.647 28.135V32c-1.02.007-2.47-.866-2.47-1.933 0-1.067 1.14-1.932 2.47-1.932z" overflow="visible" opacity=".3" fill="url(#r)" transform="translate(0 -1)"/><path d="M1.927 11.5c-.69.08-.322.903-.377 1.365.08.3.598 15.718.598 16.248 0 .46.226.382.8.382h26.398c.62.014.488.007.488-.39.045-.202.64-16.978.663-17.243 0-.28.058-.362-.305-.362H1.927z" color="#000" overflow="visible" fill="url(#s)"/><path d="M1.682 11h28.636c.414 0 .682.292.682.655l-.673 17.713c.01.46-.137.64-.617.632l-27.257-.012c-.413 0-.83-.27-.83-.634L1 11.656c0-.364.268-.656.682-.656z" opacity=".4" fill="url(#t)"/><path d="M2.5 12.5l.625 16h25.75l.624-16z" color="#000" overflow="visible" opacity=".5" fill="none" stroke="url(#u)" stroke-linecap="round"/><path d="M1.927 11.5c-.69.08-.322.903-.377 1.365.08.3.598 15.718.598 16.248 0 .46.226.382.8.382h26.398c.62.014.488.007.488-.39.045-.202.64-16.978.663-17.243 0-.28.058-.362-.305-.362H1.927z" color="#000" overflow="visible" opacity=".3" fill="none" stroke="#000" stroke-linecap="round" stroke-linejoin="round"/><path d="M21.5 21.5v-4.02h5v4.02h4.007v5H26.5v4.007h-5V26.5h-4.007v-5H21.5z" color="#000" overflow="visible" fill="url(#v)"/><path d="M22.5 23.003V18.5h3v4.497m0 2.003v4.5h-3V25" opacity=".5" fill="none" stroke="url(#w)"/><path d="M26 22.512l3.5-.01v2.987l-3.5.01m-4 0l-3.5-.01V22.5l3.5.012" opacity=".5" fill="none" stroke="url(#x)"/><path style="isolation:auto;mix-blend-mode:normal" d="M21.5 21.5v-4.02h5v4.02h4.007v5H26.5v4.007h-5V26.5h-4.007v-5H21.5z" color="#000" overflow="visible" opacity=".5" fill="none" stroke="#0f5a00" stroke-linecap="round" stroke-linejoin="round"/></svg>
